X:1
T:My Clinch Mountain Home
M:4/4
L:1/8
K:C
 GG| G G2 G G2 EE| GA GF E2 GG| Ac cA c c2 A| cd cA G2 BA| G4- GE FE|\
 C6 GG| GG GG G2 EE| GA GF E2G-G| Ac cA c c2 A| cd cA GG BA| G4- GE FE|\
 C6 GG| A4 Ac ed| c2 G4 BA| G4- GG AG| E6 GG| A4 Ac ed| c2 G4 GA| B4- Bd AB|\
 c6|
